src/icons/icons_set_04/039-pin.svg

<svg height="50" viewBox="0 0 50 50" width="50" xmlns="http://www.w3.org/2000/svg"><path d="m17.7836207 49.875h-.3017241c-4.0672414-3.7202381-7.5431035-8.3809524-10.67801729-13.3928571-2.98706897-4.7767858-6.1612069-10.3601191-6.63793103-17.3630953-.4375-6.4255952 2.07284482-10.95535712 5.05086206-13.94940474 3.12887932-3.11904762 7.92327586-5.50892857 14.15387936-4.96726191 9.1482758.79464286 16.2086206 8.80952381 15.4392241 19.21428575-.4948276 6.7380952-3.4818966 11.7410714-6.637931 16.9345238-2.7698276 4.5684524-6.411638 10.1190476-10.3913794 13.5208333zm-11.39913794-33.5892857c-.55818966 5.9047619 2.78491379 9.9107143 6.33620694 11.5267857 7.8810344 3.5714286 16.9418103-2.3809524 15.8737069-11.8125-.6125-5.5029762-5.6030173-9.75-11.3961207-9.53869048-5.7931035.21130953-10.31594831 4.46428568-10.81982762 9.82142858z" transform="translate(7)"/></svg>

<?xml version="1.0" encoding="UTF-8"?>
<svg width="50px" height="50px" viewBox="0 0 50 50" version="1.1" xmlns="http://www.w3.org/2000/svg" xmlns:xlink="http://www.w3.org/1999/xlink">
    <!-- Generator: Sketch 52.2 (67145) - http://www.bohemiancoding.com/sketch -->
    <title>039-pin</title>
    <desc>Created with Sketch.</desc>
    <g id="039-pin" stroke="none" stroke-width="1" fill="none" fill-rule="evenodd">
        <g id="Group" transform="translate(7.000000, -0.000000)" fill="#000000" fill-rule="nonzero">
            <g id="050-pin">
                <g id="ICONSET-01">
                    <g id="050-pin">
                        <path d="M17.7836207,49.875 L17.4818966,49.875 C13.4146552,46.1547619 9.9387931,41.4940476 6.80387931,36.4821429 C3.81681034,31.7053571 0.642672414,26.1220238 0.165948276,19.1190476 C-0.271551724,12.6934524 2.2387931,8.16369048 5.21681034,5.16964286 C8.34568966,2.05059524 13.1400862,-0.339285714 19.3706897,0.202380952 C28.5189655,0.99702381 35.5793103,9.01190476 34.8099138,19.4166667 C34.3150862,26.1547619 31.3280172,31.1577381 28.1719828,36.3511905 C25.4021552,40.9196429 21.7603448,46.4702381 17.7806034,49.8720238 L17.7836207,49.875 Z M6.38448276,16.2857143 C5.8262931,22.1904762 9.16939655,26.1964286 12.7206897,27.8125 C20.6017241,31.3839286 29.6625,25.4315476 28.5943966,16 C27.9818966,10.4970238 22.9913793,6.25 17.1982759,6.46130952 C11.4051724,6.67261905 6.88232759,10.9255952 6.37844828,16.2827381 L6.38448276,16.2857143 Z" id="Shape"></path>
                    </g>
                </g>
            </g>
        </g>
    </g>
</svg>
